X: 1
T:Mazurkalin
O:Sweden
C:e. Ernst Abrahamsson
M:3/4
R:Mazurka
K:G
P:1st
d>B G2 G>B| D>F A2 A>B| c>A F>D E>F| G>A B2 B2|\
d>B G2 G>B| D>F A2 A>B| c>A F>D E>F| G2 G4::
G>F E>D E>F| G>A B2 B2| A>B c2c2| B>G D2D2|\
G>F E>F G>A| B>c d2 B>G| Fe d2 cF| G2 G4 ::
g>g g2 e2| d>d d2 BG| F>e d2 c>F| GA Bc d2|\
g>g g2 e2| d>d d2 BG| Fd Fd cF| G2 G4:|
P:2nd voice
G>D B,2 B,>D| A,>C D2 F>G| F>F D2C2| B,>D [G,2D2] [G,2D2]|\
G>D B,2 B,>D| A,>C D2 F>G| F>F D2 C2| [B,2D2] [B,4D4] ::
[B,2D2] [B,2D2] [B,2D2] | B,>C D2 G2| C>D E2 F2| G>D B,2 B,2|\
D2C2 B>D| G>A B2 G>D| DC A,2 C2| [B,2D2] [B,4D4] ::
[D4B4] [E2c2]| [D2B2] G2D2| C2 A,2 F>D| B,C B,A, [G,2D2]| \
[D4B4] [E2c2]| [D2B2] G2D2| D2C2 A,2| [B,2D2] [G,4D4] :|
